src/images/gamepad2.svg

<svg width="66" height="40" viewBox="0 0 75 45" fill="none" xmlns="http://www.w3.org/2000/svg"><path fill="#9A1FE2" d="M5 5h65v35H5z"/><path d="M35 15v-5h-5v5h5zM15 15h5v5h5v5h-5v5h-5v-5h-5v-5h5v-5zM45 15v-5h-5v5h5z" fill="#FFE600"/><path fill-rule="evenodd" clip-rule="evenodd" d="M60 20v-5h-5v5h-5v5h5v5h5v-5h5v-5h-5zm0 0v5h-5v-5h5z" fill="#FFE600"/><path fill-rule="evenodd" clip-rule="evenodd" d="M65 5V0H10v5H5v5H0v25h5v5h5v5h15v-5h25v5h15v-5h5v-5h5V10h-5V5h-5zm0 0v5h5v25h-5v5H50v-5H25v5H10v-5H5V10h5V5h55z" fill="#FFE600"/></svg>

<svg width="66" height="40" viewBox="0 0 75 45" fill="none" xmlns="http://www.w3.org/2000/svg">
<rect x="5" y="5" width="65" height="35" fill="#9A1FE2"/>
<path d="M35 15V10H30V15H35Z" fill="#FFE600"/>
<path d="M15 15H20V20H25V25H20V30H15V25H10V20H15V15Z" fill="#FFE600"/>
<path d="M45 15V10H40V15H45Z" fill="#FFE600"/>
<path fill-rule="evenodd" clip-rule="evenodd" d="M60 20V15H55V20H50V25H55V30H60V25H65V20H60ZM60 20V25H55V20H60Z" fill="#FFE600"/>
<path fill-rule="evenodd" clip-rule="evenodd" d="M65 5V2.40413e-06L10 0V5H5V10H0V35H5V40H10V45H25V40H50V45H65V40H70V35H75V10H70V5L65 5ZM65 5V10H70V35H65V40H50V35H25V40H10V35H5V10H10V5L65 5Z" fill="#FFE600"/>
</svg>
